F[BALLADE
CUT[Frau von Weissenburg
    Graf Friedrich taet' ausreiten,]
CNR[er reit vor ein hohes Haus,]
REG[Mitteleuropa, Oesterreich, Niederoesterreich, Deutsch - Altenburg]
SRC[1, S. 307
    1914 aufgezeichnet (vor)]
KEY[Q0030C 16  E 6/8]
MEL[-5_  1__1_-5__-5_  2__.-5__
    -5_  2__222_1_2_  3__.0__
    3_  4_5_6_2_3_4_  3_4_5_1_2_
    3_  2_3_4_-5_-6_-7_  1__3_5__
    3_  4_5_6_2_3_4_  3_4_5_1_2_
    3_  2_3_4_-5_-6_-7_  1__.0__ //] >>
FCT[Ballade, Ehebruch, Mord, Moral]
